src/pos-icons/monitor.svg

<svg height="24" viewBox="0 0 24 24" width="24" xmlns="http://www.w3.org/2000/svg"><path d="m21 16h-18v-12h18m0-2h-18c-1.11 0-2 .89-2 2v12a2 2 0 0 0 2 2h7v2h-2v2h8v-2h-2v-2h7a2 2 0 0 0 2-2v-12c0-1.11-.9-2-2-2z"/></svg>

<?xml version="1.0" encoding="UTF-8"?><!DOCTYPE svg PUBLIC "-//W3C//DTD SVG 1.1//EN" "http://www.w3.org/Graphics/SVG/1.1/DTD/svg11.dtd"><svg xmlns="http://www.w3.org/2000/svg" xmlns:xlink="http://www.w3.org/1999/xlink" version="1.1" id="mdi-monitor" width="24" height="24" viewBox="0 0 24 24"><path d="M21,16H3V4H21M21,2H3C1.89,2 1,2.89 1,4V16A2,2 0 0,0 3,18H10V20H8V22H16V20H14V18H21A2,2 0 0,0 23,16V4C23,2.89 22.1,2 21,2Z" /></svg>
